SVG_Azure_All/Event Hub.svg

<?xml version="1.0" encoding="UTF-8" standalone="no"?>
<!-- Generated by Microsoft Visio, SVG Export Event Hub.svg Page-1 -->

<svg
   xmlns:dc="http://purl.org/dc/elements/1.1/"
   xmlns:cc="http://creativecommons.org/ns#"
   xmlns:rdf="http://www.w3.org/1999/02/22-rdf-syntax-ns#"
   xmlns:svg="http://www.w3.org/2000/svg"
   xmlns="http://www.w3.org/2000/svg"
   xmlns:sodipodi="http://sodipodi.sourceforge.net/DTD/sodipodi-0.dtd"
   xmlns:inkscape="http://www.inkscape.org/namespaces/inkscape"
   width="0.7874909in"
   height="0.70867687in"
   viewBox="0 0 56.699638 51.024719"
   xml:space="preserve"
   class="st6"
   version="1.1"
   id="svg91"
   sodipodi:docname="Event Hub.svg"
   style="font-size:12px;overflow:visible;color-interpolation-filters:sRGB;fill:none;fill-rule:evenodd;stroke-linecap:square;stroke-miterlimit:3"
   inkscape:version="0.92.5 (2060ec1f9f, 2020-04-08)"><metadata
   id="metadata97"><rdf:RDF><cc:Work
       rdf:about=""><dc:format>image/svg+xml</dc:format><dc:type
         rdf:resource="http://purl.org/dc/dcmitype/StillImage" /></cc:Work></rdf:RDF></metadata><defs
   id="defs95" /><sodipodi:namedview
   pagecolor="#ffffff"
   bordercolor="#666666"
   borderopacity="1"
   objecttolerance="10"
   gridtolerance="10"
   guidetolerance="10"
   inkscape:pageopacity="0"
   inkscape:pageshadow="2"
   inkscape:window-width="640"
   inkscape:window-height="480"
   id="namedview93"
   showgrid="false"
   inkscape:zoom="1.4869072"
   inkscape:cx="37.797044"
   inkscape:cy="34.006225"
   inkscape:window-x="0"
   inkscape:window-y="0"
   inkscape:window-maximized="0"
   inkscape:current-layer="svg91" />
	<style
   type="text/css"
   id="style2">
	<![CDATA[
		.st1 {fill:#76bc2d;stroke:none;stroke-linecap:butt;stroke-width:34}
		.st2 {fill:#86d633;stroke:none;stroke-linecap:butt;stroke-width:34}
		.st3 {fill:#999999;stroke:none;stroke-linecap:butt;stroke-width:34}
		.st4 {fill:#999999;fill-opacity:0.5;stroke:none;stroke-linecap:butt;stroke-width:34}
		.st5 {fill:#949494;stroke:none;stroke-linecap:butt;stroke-width:34}
		.st6 {fill:none;fill-rule:evenodd;font-size:12px;overflow:visible;stroke-linecap:square;stroke-miterlimit:3}
	]]>
	</style>

	<g
   id="g89"
   transform="translate(-34.000072,-33.99963)">
		<title
   id="title4">Page-1</title>
		<g
   id="group5163-1"
   transform="translate(34.0026,-34.0157)">
			<title
   id="title6">Event Hub</title>
			<g
   id="group5164-2">
				<title
   id="title8"> Icon-analytics-144</title>
				<g
   id="shape5165-3"
   transform="translate(25.7786,-16.1092)">
					<title
   id="title10">Sheet.5165</title>
					<path
   d="m 8.67,107.41 a 0.867068,0.876231 0 0 1 -0.800371,0.90993 L 0.9,108.32 A 0.867068,0.876231 0 0 1 -4.17e-4,107.51117 L 0,102.26 a 0.867068,0.876231 0 0 1 0.800371,-0.90993 L 7.77,101.35 a 0.867068,0.876231 0 0 1 0.900417,0.80883 z m 12.37,5.33 a 0.867068,0.876231 0 0 1 -0.800371,0.90993 L 13.27,113.65 a 0.867068,0.876231 0 0 1 -0.900417,-0.80883 L 12.37,107.61 a 0.867068,0.876231 0 0 1 0.800371,-0.90993 L 20.14,106.7 a 0.867068,0.876231 0 0 1 0.900417,0.80883 z m -12.37,5.39 a 0.867068,0.876231 0 0 1 -0.800371,0.90993 L 0.9,119.04 A 0.867068,0.876231 0 0 1 -4.17e-4,118.23117 L 0,112.97 a 0.867068,0.876231 0 0 1 0.800371,-0.90993 L 7.77,112.06 a 0.867068,0.876231 0 0 1 0.900417,0.80883 z"
   class="st1"
   id="path12"
   inkscape:connector-curvature="0"
   style="fill:#76bc2d;stroke:none;stroke-width:34;stroke-linecap:butt" />
				</g>
				<g
   id="shape5166-5"
   transform="translate(13.2395,-32.1846)">
					<title
   id="title15">Sheet.5166</title>
					<path
   d="m 8.84,118.16 a 0.833719,0.84253 0 0 1 -0.767022,0.87623 L 0.9,119.04 A 0.867068,0.876231 0 0 1 -4.17e-4,118.26487 L 0,112.8 a 0.867068,0.876231 0 0 1 0.800371,-0.84253 L 7.77,111.96 c 0.73,0 1.07,0.37 1.07,0.91 z"
   class="st2"
   id="path17"
   inkscape:connector-curvature="0"
   style="fill:#86d633;stroke:none;stroke-width:34;stroke-linecap:butt" />
				</g>
				<g
   id="shape5167-7"
   transform="translate(13.2395,-10.7507)">
					<title
   id="title20">Sheet.5167</title>
					<path
   d="m 8.84,107.38 a 0.833719,0.84253 0 0 1 -0.767022,0.90993 L 0.9,108.29 A 0.867068,0.876231 0 0 1 -4.17e-4,107.38007 L 0,102.05 a 0.867068,0.876231 0 0 1 0.800371,-0.87623 L 7.77,101.18 c 0.73,0 1.07,0.37 1.07,0.87 z m 0,10.75 a 0.833719,0.84253 0 0 1 -0.767022,0.90993 L 0.9,119.04 A 0.867068,0.876231 0 0 1 -4.17e-4,118.23117 L 0,112.77 a 0.833719,0.84253 0 0 1 0.800371,-0.87623 L 7.77,111.89 c 0.73,0 1.07,0.34 1.07,0.88 z"
   class="st1"
   id="path22"
   inkscape:connector-curvature="0"
   style="fill:#76bc2d;stroke:none;stroke-width:34;stroke-linecap:butt" />
				</g>
				<g
   id="group5168-9"
   transform="translate(0,-37.9139)">
					<title
   id="title25">Sheet.5168</title>
					<g
   id="shape5169-10">
						<title
   id="title27">Sheet.5169</title>
						<path
   d="m 1.9,105.93 h 4.3 v 12.13 a 0.967114,0.977335 0 0 1 -0.967114,0.97733 L 0.97,119.04 A 0.967114,0.977335 0 0 1 0.002886,118.06267 L 0,107.95 a 1.90088,1.92097 0 0 1 1.9,-2.02 z"
   class="st3"
   id="path29"
   inkscape:connector-curvature="0"
   style="fill:#999999;stroke:none;stroke-width:34;stroke-linecap:butt" />
					</g>
					<g
   id="shape5170-12">
						<title
   id="title32">Sheet.5170</title>
						<path
   d="m 1.9,105.93 h 4.3 v 12.13 a 0.967114,0.977335 0 0 1 -0.967114,0.97733 L 0.97,119.04 A 0.967114,0.977335 0 0 1 0.002886,118.06267 L 0,107.95 a 1.90088,1.92097 0 0 1 1.9,-2.02 z"
   class="st4"
   id="path34"
   inkscape:connector-curvature="0"
   style="fill:#999999;fill-opacity:0.5;stroke:none;stroke-width:34;stroke-linecap:butt" />
					</g>
				</g>
				<g
   id="group5171-14"
   transform="translate(50.4567,-38.015)">
					<title
   id="title38">Sheet.5171</title>
					<g
   id="shape5172-15">
						<title
   id="title40">Sheet.5172</title>
						<path
   d="m 0.03,106.03 h 4.31 a 1.90088,1.92097 0 0 1 1.9,1.92 v 10.11 a 0.967114,0.977335 0 0 1 -0.967114,0.97733 L 0.97,119.04 A 0.967114,0.977335 0 0 1 0.002886,118.06267 L 0,106.03 Z"
   class="st3"
   id="path42"
   inkscape:connector-curvature="0"
   style="fill:#999999;stroke:none;stroke-width:34;stroke-linecap:butt" />
					</g>
					<g
   id="shape5173-17">
						<title
   id="title45">Sheet.5173</title>
						<path
   d="m 0.03,106.03 h 4.31 a 1.90088,1.92097 0 0 1 1.9,1.92 v 10.11 a 0.967114,0.977335 0 0 1 -0.967114,0.97733 L 0.97,119.04 A 0.967114,0.977335 0 0 1 0.002886,118.06267 L 0,106.03 Z"
   class="st4"
   id="path47"
   inkscape:connector-curvature="0"
   style="fill:#999999;fill-opacity:0.5;stroke:none;stroke-width:34;stroke-linecap:butt" />
					</g>
				</g>
				<g
   id="shape5174-19"
   transform="translate(0,-44.89)">
					<title
   id="title51">Sheet.5174</title>
					<path
   d="m 56.69,114.83 v 4.21 H 0 v -4.21 a 1.90088,1.92097 0 0 1 1.9,-1.92 h 52.93 a 1.90088,1.92097 0 0 1 1.86,1.92 z"
   class="st5"
   id="path53"
   inkscape:connector-curvature="0"
   style="fill:#949494;stroke:none;stroke-width:34;stroke-linecap:butt" />
				</g>
				<g
   id="group5175-21">
					<title
   id="title56">Sheet.5175</title>
					<g
   id="shape5176-22">
						<title
   id="title58">Sheet.5176</title>
						<path
   d="m 0.97,105.93 h 4.3 a 0.967114,0.977335 0 0 1 0.967114,0.97734 L 6.24,119.04 H 1.9 A 1.90088,1.92097 0 0 1 0,117.12 v -10.38 a 0.967114,0.977335 0 0 1 0.967114,-0.80883 z"
   class="st3"
   id="path60"
   inkscape:connector-curvature="0"
   style="fill:#999999;stroke:none;stroke-width:34;stroke-linecap:butt" />
					</g>
					<g
   id="shape5177-24">
						<title
   id="title63">Sheet.5177</title>
						<path
   d="m 0.97,105.93 h 4.3 a 0.967114,0.977335 0 0 1 0.967114,0.97734 L 6.24,119.04 H 1.9 A 1.90088,1.92097 0 0 1 0,117.12 v -10.38 a 0.967114,0.977335 0 0 1 0.967114,-0.80883 z"
   class="st4"
   id="path65"
   inkscape:connector-curvature="0"
   style="fill:#999999;fill-opacity:0.5;stroke:none;stroke-width:34;stroke-linecap:butt" />
					</g>
				</g>
				<g
   id="group5178-26"
   transform="translate(50.49,-0.101104)">
					<title
   id="title69">Sheet.5178</title>
					<g
   id="shape5179-27">
						<title
   id="title71">Sheet.5179</title>
						<path
   d="m 0.93,106.03 h 4.31 a 0.967114,0.977335 0 0 1 0.967114,0.97733 L 6.2,117.12 a 1.90088,1.92097 0 0 1 -1.9,1.92 H 0 v -12.2 a 0.967114,0.977335 0 0 1 0.933766,-0.80883 z"
   class="st3"
   id="path73"
   inkscape:connector-curvature="0"
   style="fill:#999999;stroke:none;stroke-width:34;stroke-linecap:butt" />
					</g>
					<g
   id="shape5180-29">
						<title
   id="title76">Sheet.5180</title>
						<path
   d="m 0.93,106.03 h 4.31 a 0.967114,0.977335 0 0 1 0.967114,0.97733 L 6.2,117.12 a 1.90088,1.92097 0 0 1 -1.9,1.92 H 0 v -12.2 a 0.967114,0.977335 0 0 1 0.933766,-0.80883 z"
   class="st4"
   id="path78"
   inkscape:connector-curvature="0"
   style="fill:#999999;fill-opacity:0.5;stroke:none;stroke-width:34;stroke-linecap:butt" />
					</g>
				</g>
				<g
   id="shape5181-31">
					<title
   id="title82">Sheet.5181</title>
					<path
   d="m 0,117.12 v -4.21 h 56.69 v 4.21 a 1.90088,1.92097 0 0 1 -1.9,1.92 H 1.9 A 1.90088,1.92097 0 0 1 0,117.12 Z"
   class="st5"
   id="path84"
   inkscape:connector-curvature="0"
   style="fill:#949494;stroke:none;stroke-width:34;stroke-linecap:butt" />
				</g>
			</g>
		</g>
	</g>
</svg>

<?xml version="1.0" encoding="UTF-8" standalone="no"?>
<!DOCTYPE svg PUBLIC "-//W3C//DTD SVG 1.1//EN" "http://www.w3.org/Graphics/SVG/1.1/DTD/svg11.dtd">
<!-- Generated by Microsoft Visio, SVG Export Event Hub.svg Page-1 -->
<svg xmlns="http://www.w3.org/2000/svg" xmlns:xlink="http://www.w3.org/1999/xlink" xmlns:ev="http://www.w3.org/2001/xml-events"
		width="1.73188in" height="1.65332in" viewBox="0 0 124.696 119.039" xml:space="preserve" color-interpolation-filters="sRGB"
		class="st6">
	<style type="text/css">
	<![CDATA[
		.st1 {fill:#76bc2d;stroke:none;stroke-linecap:butt;stroke-width:34}
		.st2 {fill:#86d633;stroke:none;stroke-linecap:butt;stroke-width:34}
		.st3 {fill:#999999;stroke:none;stroke-linecap:butt;stroke-width:34}
		.st4 {fill:#999999;fill-opacity:0.5;stroke:none;stroke-linecap:butt;stroke-width:34}
		.st5 {fill:#949494;stroke:none;stroke-linecap:butt;stroke-width:34}
		.st6 {fill:none;fill-rule:evenodd;font-size:12px;overflow:visible;stroke-linecap:square;stroke-miterlimit:3}
	]]>
	</style>

	<g>
		<title>Page-1</title>
		<g id="group5057-1" transform="translate(34.0026,-34.0157)">
			<title>Event Hub</title>
			<g id="group5058-2">
				<title> Icon-analytics-144</title>
				<g id="shape5059-3" transform="translate(25.7786,-16.1092)">
					<title>Sheet.5059</title>
					<path d="M8.67 107.41 a0.867068 0.876231 0 0 1 -0.800371 0.909932 L0.9 108.32 a0.867068 0.876231 0 0 1 -0.900417
								 -0.808829 L0 102.26 a0.867068 0.876231 0 0 1 0.800371 -0.909932 L7.77 101.35 a0.867068 0.876231
								 0 0 1 0.900417 0.808829 L8.67 107.41 ZM21.04 112.74 a0.867068 0.876231 0 0 1 -0.800371 0.909932
								 L13.27 113.65 a0.867068 0.876231 0 0 1 -0.900417 -0.808829 L12.37 107.61 a0.867068 0.876231 0 0
								 1 0.800371 -0.909932 L20.14 106.7 a0.867068 0.876231 0 0 1 0.900417 0.808829 L21.04 112.74 ZM8.67
								 118.13 a0.867068 0.876231 0 0 1 -0.800371 0.909932 L0.9 119.04 a0.867068 0.876231 0 0 1 -0.900417
								 -0.808829 L0 112.97 a0.867068 0.876231 0 0 1 0.800371 -0.909932 L7.77 112.06 a0.867068 0.876231
								 0 0 1 0.900417 0.808829 L8.67 118.13 Z" class="st1"/>
				</g>
				<g id="shape5060-5" transform="translate(13.2395,-32.1846)">
					<title>Sheet.5060</title>
					<path d="M8.84 118.16 a0.833719 0.84253 0 0 1 -0.767022 0.876231 L0.9 119.04 a0.867068 0.876231 0 0 1 -0.900417
								 -0.775128 L0 112.8 a0.867068 0.876231 0 0 1 0.800371 -0.84253 L7.77 111.96 C8.5 111.96 8.84 112.33
								 8.84 112.87 L8.84 118.16 Z" class="st2"/>
				</g>
				<g id="shape5061-7" transform="translate(13.2395,-10.7507)">
					<title>Sheet.5061</title>
					<path d="M8.84 107.38 a0.833719 0.84253 0 0 1 -0.767022 0.909932 L0.9 108.29 a0.867068 0.876231 0 0 1 -0.900417
								 -0.909932 L0 102.05 a0.867068 0.876231 0 0 1 0.800371 -0.876231 L7.77 101.18 C8.5 101.18 8.84 101.55
								 8.84 102.05 L8.84 107.38 ZM8.84 118.13 a0.833719 0.84253 0 0 1 -0.767022 0.909932 L0.9 119.04 a0.867068
								 0.876231 0 0 1 -0.900417 -0.808829 L0 112.77 a0.833719 0.84253 0 0 1 0.800371 -0.876231 L7.77 111.89
								 C8.5 111.89 8.84 112.23 8.84 112.77 L8.84 118.13 Z" class="st1"/>
				</g>
				<g id="group5062-9" transform="translate(5.64548E-14,-37.9139)">
					<title>Sheet.5062</title>
					<g id="shape5063-10">
						<title>Sheet.5063</title>
						<path d="M1.9 105.93 L6.2 105.93 L6.2 118.06 a0.967114 0.977335 0 0 1 -0.967114 0.977335 L0.97 119.04 a0.967114
									 0.977335 0 0 1 -0.967114 -0.977335 L0 107.95 A1.90088 1.92097 0 0 1 1.9 105.93 Z" class="st3"/>
					</g>
					<g id="shape5064-12">
						<title>Sheet.5064</title>
						<path d="M1.9 105.93 L6.2 105.93 L6.2 118.06 a0.967114 0.977335 0 0 1 -0.967114 0.977335 L0.97 119.04 a0.967114
									 0.977335 0 0 1 -0.967114 -0.977335 L0 107.95 A1.90088 1.92097 0 0 1 1.9 105.93 Z" class="st4"/>
					</g>
				</g>
				<g id="group5065-14" transform="translate(50.4567,-38.015)">
					<title>Sheet.5065</title>
					<g id="shape5066-15">
						<title>Sheet.5066</title>
						<path d="M0.03 106.03 L4.34 106.03 A1.90088 1.92097 0 0 1 6.24 107.95 L6.24 118.06 a0.967114 0.977335 0 0
									 1 -0.967114 0.977335 L0.97 119.04 a0.967114 0.977335 0 0 1 -0.967114 -0.977335 L0 106.03 L0.03
									 106.03 Z" class="st3"/>
					</g>
					<g id="shape5067-17">
						<title>Sheet.5067</title>
						<path d="M0.03 106.03 L4.34 106.03 A1.90088 1.92097 0 0 1 6.24 107.95 L6.24 118.06 a0.967114 0.977335 0 0
									 1 -0.967114 0.977335 L0.97 119.04 a0.967114 0.977335 0 0 1 -0.967114 -0.977335 L0 106.03 L0.03
									 106.03 Z" class="st4"/>
					</g>
				</g>
				<g id="shape5068-19" transform="translate(0,-44.89)">
					<title>Sheet.5068</title>
					<path d="M56.69 114.83 L56.69 119.04 L0 119.04 L0 114.83 A1.90088 1.92097 0 0 1 1.9 112.91 L54.83 112.91 A1.90088
								 1.92097 0 0 1 56.69 114.83 Z" class="st5"/>
				</g>
				<g id="group5069-21">
					<title>Sheet.5069</title>
					<g id="shape5070-22">
						<title>Sheet.5070</title>
						<path d="M0.97 105.93 L5.27 105.93 a0.967114 0.977335 0 0 1 0.967114 0.977335 L6.24 119.04 L1.9 119.04 A1.90088
									 1.92097 0 0 1 0 117.12 L0 106.74 a0.967114 0.977335 0 0 1 0.967114 -0.808829 Z" class="st3"/>
					</g>
					<g id="shape5071-24">
						<title>Sheet.5071</title>
						<path d="M0.97 105.93 L5.27 105.93 a0.967114 0.977335 0 0 1 0.967114 0.977335 L6.24 119.04 L1.9 119.04 A1.90088
									 1.92097 0 0 1 0 117.12 L0 106.74 a0.967114 0.977335 0 0 1 0.967114 -0.808829 Z" class="st4"/>
					</g>
				</g>
				<g id="group5072-26" transform="translate(50.49,-0.101104)">
					<title>Sheet.5072</title>
					<g id="shape5073-27">
						<title>Sheet.5073</title>
						<path d="M0.93 106.03 L5.24 106.03 a0.967114 0.977335 0 0 1 0.967114 0.977335 L6.2 117.12 A1.90088 1.92097
									 0 0 1 4.3 119.04 L0 119.04 L0 106.84 a0.967114 0.977335 0 0 1 0.933766 -0.808829 Z"
								class="st3"/>
					</g>
					<g id="shape5074-29">
						<title>Sheet.5074</title>
						<path d="M0.93 106.03 L5.24 106.03 a0.967114 0.977335 0 0 1 0.967114 0.977335 L6.2 117.12 A1.90088 1.92097
									 0 0 1 4.3 119.04 L0 119.04 L0 106.84 a0.967114 0.977335 0 0 1 0.933766 -0.808829 Z"
								class="st4"/>
					</g>
				</g>
				<g id="shape5075-31">
					<title>Sheet.5075</title>
					<path d="M0 117.12 L0 112.91 L56.69 112.91 L56.69 117.12 A1.90088 1.92097 0 0 1 54.79 119.04 L1.9 119.04 A1.90088
								 1.92097 0 0 1 0 117.12 Z" class="st5"/>
				</g>
			</g>
		</g>
	</g>
</svg>
